Numix-GalliumOS/64/devices/audio-input-microphone.svg

<?xml version="1.0" encoding="UTF-8" standalone="yes"?>
<svg xmlns="http://www.w3.org/2000/svg" xmlns:xlink="http://www.w3.org/1999/xlink" width="64px" height="64px" viewBox="0 0 48 48" version="1.1">
  <g id="surface1">
    <path style=" stroke:none;fill-rule:nonzero;fill:rgb(83.921569%,83.921569%,83.921569%);fill-opacity:1;" d="M 24 4.5 C 28.140625 4.5 31.5 8.363281 31.5 13.125 L 31.5 23.625 C 31.5 28.386719 28.140625 32.25 24 32.25 C 19.859375 32.25 16.5 28.386719 16.5 23.625 L 16.5 13.125 C 16.5 8.363281 19.859375 4.5 24 4.5 Z M 24 4.5 "/>
    <path style=" stroke:none;fill-rule:nonzero;fill:rgb(50.980392%,50.980392%,50.980392%);fill-opacity:1;" d="M 31.5 18 L 31.5 19.5 L 27 19.5 C 26.167969 19.5 25.5 19.164062 25.5 18.75 C 25.5 18.335938 26.167969 18 27 18 Z M 31.5 18 "/>
    <path style=" stroke:none;fill-rule:nonzero;fill:rgb(50.980392%,50.980392%,50.980392%);fill-opacity:1;" d="M 31.5 15 L 31.5 16.5 L 27 16.5 C 26.167969 16.5 25.5 16.164062 25.5 15.75 C 25.5 15.335938 26.167969 15 27 15 Z M 31.5 15 "/>
    <path style=" stroke:none;fill-rule:nonzero;fill:rgb(21.568627%,21.568627%,21.568627%);fill-opacity:1;" d="M 16.5 24.003906 L 12 25.875 L 12.035156 24 Z M 16.5 24.003906 "/>
    <path style=" stroke:none;fill-rule:nonzero;fill:rgb(21.568627%,21.568627%,21.568627%);fill-opacity:1;" d="M 31.5 24.003906 L 36 25.875 L 35.964844 24 Z M 31.5 24.003906 "/>
    <path style=" stroke:none;fill-rule:nonzero;fill:rgb(32.941176%,44.313725%,50.588235%);fill-opacity:1;" d="M 12.839844 23.425781 C 12.226562 23.4375 11.734375 23.941406 11.742188 24.558594 C 11.742188 28.933594 14.082031 32.984375 17.871094 35.171875 C 21.664062 37.363281 26.335938 37.363281 30.128906 35.171875 C 33.917969 32.984375 36.257812 28.933594 36.257812 24.558594 C 36.261719 24.15625 36.050781 23.78125 35.703125 23.578125 C 35.359375 23.375 34.929688 23.375 34.582031 23.578125 C 34.234375 23.78125 34.023438 24.15625 34.027344 24.558594 C 34.027344 28.140625 32.117188 31.449219 29.015625 33.242188 C 25.910156 35.035156 22.089844 35.035156 18.984375 33.242188 C 15.882812 31.449219 13.972656 28.140625 13.972656 24.558594 C 13.976562 24.257812 13.859375 23.964844 13.644531 23.753906 C 13.429688 23.539062 13.140625 23.421875 12.839844 23.425781 Z M 12.839844 23.425781 "/>
    <path style=" stroke:none;fill-rule:evenodd;fill:rgb(32.941176%,44.313725%,50.588235%);fill-opacity:1;" d="M 22.886719 36.589844 C 22.457031 39.820312 19.972656 41.832031 17.3125 43.5 L 30.6875 43.5 C 28.027344 41.832031 25.542969 39.820312 25.113281 36.589844 Z M 22.886719 36.589844 "/>
    <path style=" stroke:none;fill-rule:nonzero;fill:rgb(32.941176%,44.313725%,50.588235%);fill-opacity:1;" d="M 16.5 23.25 L 16.5 23.625 C 16.5 28.402344 19.84375 32.25 24 32.25 C 28.15625 32.25 31.5 28.402344 31.5 23.625 L 31.5 23.25 Z M 16.5 23.25 "/>
    <path style=" stroke:none;fill-rule:nonzero;fill:rgb(21.568627%,21.568627%,21.568627%);fill-opacity:1;" d="M 16.5 22.5 L 16.5 23.625 C 16.5 23.75 16.511719 23.875 16.519531 24 L 31.480469 24 C 31.488281 23.875 31.5 23.75 31.5 23.625 L 31.5 22.5 Z M 16.5 22.5 "/>
    <path style=" stroke:none;fill-rule:nonzero;fill:rgb(50.980392%,50.980392%,50.980392%);fill-opacity:1;" d="M 31.429688 12 C 31.472656 12.367188 31.5 12.742188 31.5 13.125 L 31.5 13.5 L 27 13.5 C 26.167969 13.5 25.5 13.164062 25.5 12.75 C 25.5 12.335938 26.167969 12 27 12 Z M 31.429688 12 "/>
    <path style=" stroke:none;fill-rule:nonzero;fill:rgb(100%,100%,100%);fill-opacity:0.2;" d="M 25.5 -0.570312 L 25.5 33.980469 C 26.613281 33.714844 27.628906 33.148438 28.5 32.371094 L 28.5 1.035156 C 27.628906 0.257812 26.613281 -0.304688 25.5 -0.570312 Z M 25.5 -0.570312 "/>
    <path style=" stroke:none;fill-rule:nonzero;fill:rgb(100%,100%,100%);fill-opacity:0.2;" d="M 28.5 33.496094 C 27.542969 33.980469 26.53125 34.304688 25.5 34.460938 L 25.5 36.71875 C 26.519531 36.59375 27.527344 36.332031 28.5 35.949219 Z M 28.5 33.496094 "/>
    <path style=" stroke:none;fill-rule:nonzero;fill:rgb(100%,100%,100%);fill-opacity:0.2;" d="M 25.5 38.070312 L 25.5 43.5 L 28.5 43.5 L 28.5 41.957031 C 27.175781 40.894531 26.078125 39.640625 25.5 38.070312 Z M 25.5 38.070312 "/>
    <path style=" stroke:none;fill-rule:nonzero;fill:rgb(50.980392%,50.980392%,50.980392%);fill-opacity:1;" d="M 16.5 18 L 16.5 19.5 L 21 19.5 C 21.832031 19.5 22.5 19.164062 22.5 18.75 C 22.5 18.335938 21.832031 18 21 18 Z M 16.5 18 "/>
    <path style=" stroke:none;fill-rule:nonzero;fill:rgb(50.980392%,50.980392%,50.980392%);fill-opacity:1;" d="M 16.5 15 L 16.5 16.5 L 21 16.5 C 21.832031 16.5 22.5 16.164062 22.5 15.75 C 22.5 15.335938 21.832031 15 21 15 Z M 16.5 15 "/>
    <path style=" stroke:none;fill-rule:nonzero;fill:rgb(50.980392%,50.980392%,50.980392%);fill-opacity:1;" d="M 16.570312 12 C 16.527344 12.367188 16.5 12.742188 16.5 13.125 L 16.5 13.5 L 21 13.5 C 21.832031 13.5 22.5 13.164062 22.5 12.75 C 22.5 12.335938 21.832031 12 21 12 Z M 16.570312 12 "/>
  </g>
</svg>

<svg xmlns="http://www.w3.org/2000/svg" width="64" height="64" viewBox="0 0 48 48">
 <g>
  <path d="m 24 4.5 c 4.141 0 7.5 3.863 7.5 8.625 l 0 10.5 c 0 4.762 -3.359 8.625 -7.5 8.625 c -4.141 0 -7.5 -3.863 -7.5 -8.625 l 0 -10.5 c 0 -4.762 3.359 -8.625 7.5 -8.625 m 0 0" style="fill:#d6d6d6;fill-opacity:1;stroke:none;fill-rule:nonzero"/>
  <path d="m 31.5 18 l 0 1.5 l -4.5 0 c -0.832 0 -1.5 -0.336 -1.5 -0.75 c 0 -0.414 0.668 -0.75 1.5 -0.75 m 4.5 0" style="fill:#818181;fill-opacity:1;stroke:none;fill-rule:nonzero"/>
  <path d="m 31.5 15 l 0 1.5 l -4.5 0 c -0.832 0 -1.5 -0.336 -1.5 -0.75 c 0 -0.414 0.668 -0.75 1.5 -0.75 m 4.5 0" style="fill:#818181;fill-opacity:1;stroke:none;fill-rule:nonzero"/>
  <path d="m 16.5 24 l -4.5 1.871 l 0.035 -1.875 m 4.465 0.004" style="fill:#363636;fill-opacity:1;stroke:none;fill-rule:nonzero"/>
  <path d="m 31.5 24 l 4.5 1.871 l -0.035 -1.875 m -4.465 0.004" style="fill:#363636;fill-opacity:1;stroke:none;fill-rule:nonzero"/>
  <path d="m 12.84 23.426 c -0.613 0.012 -1.105 0.516 -1.098 1.133 c 0 4.375 2.34 8.426 6.129 10.613 c 3.793 2.191 8.465 2.191 12.258 0 c 3.789 -2.188 6.129 -6.238 6.129 -10.613 c 0.004 -0.402 -0.207 -0.777 -0.555 -0.98 c -0.344 -0.203 -0.773 -0.203 -1.121 0 c -0.348 0.203 -0.559 0.578 -0.555 0.98 c 0 3.582 -1.91 6.891 -5.01 8.684 c -3.105 1.793 -6.926 1.793 -10.03 0 c -3.102 -1.793 -5.01 -5.102 -5.01 -8.684 c 0.004 -0.301 -0.113 -0.594 -0.328 -0.805 c -0.215 -0.215 -0.504 -0.332 -0.805 -0.328 m 0 0" style="fill:#537080;fill-opacity:1;stroke:none;fill-rule:nonzero"/>
  <path d="m 22.887 36.59 c -0.43 3.23 -2.914 5.242 -5.574 6.91 l 13.375 0 c -2.66 -1.668 -5.145 -3.68 -5.574 -6.91 m -2.227 0" style="fill:#537080;fill-opacity:1;stroke:none;fill-rule:evenodd"/>
  <path d="m 16.5 23.25 l 0 0.375 c 0 4.777 3.344 8.625 7.5 8.625 c 4.156 0 7.5 -3.848 7.5 -8.625 l 0 -0.375 m -15 0" style="fill:#537080;fill-opacity:1;stroke:none;fill-rule:nonzero"/>
  <path d="m 16.5 22.5 l 0 1.125 c 0 0.125 0.012 0.25 0.02 0.375 l 14.961 0 c 0.008 -0.125 0.02 -0.25 0.02 -0.375 l 0 -1.125 m -15 0" style="fill:#363636;fill-opacity:1;stroke:none;fill-rule:nonzero"/>
  <path d="m 31.43 12 c 0.043 0.367 0.07 0.742 0.07 1.125 l 0 0.375 l -4.5 0 c -0.832 0 -1.5 -0.336 -1.5 -0.75 c 0 -0.414 0.668 -0.75 1.5 -0.75 m 4.43 0" style="fill:#818181;fill-opacity:1;stroke:none;fill-rule:nonzero"/>
  <path d="m 25.5 -0.57 l 0 34.551 c 1.113 -0.266 2.129 -0.832 3 -1.609 l 0 -31.34 c -0.871 -0.777 -1.887 -1.34 -3 -1.605 m 0 0" style="fill:#fff;fill-opacity:0.2;stroke:none;fill-rule:nonzero"/>
  <path d="m 28.5 33.496 c -0.957 0.484 -1.969 0.809 -3 0.965 l 0 2.258 c 1.02 -0.125 2.027 -0.387 3 -0.77 m 0 -2.453" style="fill:#fff;fill-opacity:0.2;stroke:none;fill-rule:nonzero"/>
  <path d="m 25.5 38.07 l 0 5.43 l 3 0 l 0 -1.543 c -1.324 -1.063 -2.422 -2.316 -3 -3.887 m 0 0" style="fill:#fff;fill-opacity:0.2;stroke:none;fill-rule:nonzero"/>
  <path d="m 16.5 18 l 0 1.5 l 4.5 0 c 0.832 0 1.5 -0.336 1.5 -0.75 c 0 -0.414 -0.668 -0.75 -1.5 -0.75 m -4.5 0" style="fill:#818181;fill-opacity:1;stroke:none;fill-rule:nonzero"/>
  <path d="m 16.5 15 l 0 1.5 l 4.5 0 c 0.832 0 1.5 -0.336 1.5 -0.75 c 0 -0.414 -0.668 -0.75 -1.5 -0.75 m -4.5 0" style="fill:#818181;fill-opacity:1;stroke:none;fill-rule:nonzero"/>
  <path d="m 16.57 12 c -0.043 0.367 -0.07 0.742 -0.07 1.125 l 0 0.375 l 4.5 0 c 0.832 0 1.5 -0.336 1.5 -0.75 c 0 -0.414 -0.668 -0.75 -1.5 -0.75 m -4.43 0" style="fill:#818181;fill-opacity:1;stroke:none;fill-rule:nonzero"/>
 </g>
</svg>
